X: 30177
T: Old Dun Cow Caught Fire, The
R: reel
M: 4/4
K: Aminor
A,B,|CD CB, A,2 CD|E2 A2 E2 FG|:ABAF GFCD|E6 FG|
ABAE G2FG|A2A2G2EF|D2C2 B,2 C2|E6 A,B,|
CD CB, A,2 CD|E2 A2 E4|ABAF GFCD|E6 AB|c2A2 B2 G2|
AAEEF2EF|1 E2 F2 E2 D2|E6 E2|C2 B,2 A,4|A2A2 E4:|2 E2 D2 C2 B,2|A,8||

